X:1
T:Title
%%score [ ( 1 2 ) ( 3 4 ) ] { ( 5 6 ) | 7 }
L:1/8
Q:1/4=120
M:4/4
K:Bb
V:1 treble nm="Midi_74"
V:2 treble 
V:3 bass nm="Midi_74"
V:4 bass 
V:5 treble nm="Org."
V:6 treble 
V:7 bass 
V:1
 B8 | (c3 B) (A3 G) | F8 || d8 | e4 e4 | e4 d4 |{d} c8 || c8 | (d3 c) (B3 A) | G8 || B8 | %11
 B4 (A3 B) |"^William Henry Havergal\n(1793-1870)" d4 c4 | B8 |] %14
V:2
 D8 | C4 C4 | C8 || (B,6 F2) | E4 F4 | F4 F4 | F8 || G8 | ^F4 D4 | D8 || F8 | (G3 F) (E3 D) | %12
 F4 (F2 E2) | D8 |] %14
V:3
 B,8 | G,4 B,4 | A,8 || B,8 | G,4 (F,3 G,) | A,4 B,4 |{B,} A,8 || G,8 | A,4 C4 | D8 || B,8 | %11
 B,4 (C3 D) | B,4 A,4 | B,8 |] %14
V:4
 B,8 | E,4 =E,4 | F,8 || B,,8 | (C,3 B,,) (A,,3 G,,) | F,,4 B,,4 | F,8 || E,8 | D,4 ^F,4 | G,8 || %10
 D,8 | (E,3 D,) (C,3 B,,) | F,4 F,,4 | B,,8 |] %14
V:5
 [FB]8 | c3 B A3 G | F8 || d8 | e4 [ce]4 | e4 d4 |{d} c8 || c8 | d3 c B3 A | G8 || B8 | %11
 [B,B]4 A3 B | [Bd]4 [Ac]4 | B8 |] %14
V:6
 D8 | [CG]4 [B,C]4 | [A,C]8 || [FB]8 | [EG]4 F3 G | [Ac]4 [FB]4 |{B} [FA]8 || [CG]8 | %8
 [^FA]4 [CD]4 | [B,D]8 || [B,F]8 | G3 F [CE]3 D | F4 F2 E2 | D8 |] %14
V:7
 B,8 | E,4 =E,4 | F,8 || B,,8 | C,3 B,, A,,3 G,, | F,,4 B,,4 | F,8 || E,8 | D,4 ^F,4 | G,8 || D,8 | %11
 E,3 D, C,3 B,, | F,4 F,,4 | B,,8 |] %14

